lib/brands/icons/tensorflow.svg

<svg xmlns="http://www.w3.org/2000/svg" fill="none" aria-hidden="true" viewBox="0 0 48 48"><g id="tensorflow-Icon"><g id="Group"><path id="Vector" fill="#E55B2D" d="M26.3982 11.5381V17.0769L35.9908 22.6156V17.0769L26.3982 11.5381ZM7.2124 17.0769V22.6156L12.0087 25.3844V19.8462L7.2124 17.0769ZM21.6013 19.8462L16.805 22.6156V39.2306L21.6013 42V30.9231L26.3982 33.6925V28.1538L21.6013 25.3844V19.8462Z"/><path id="Vector_2" fill="#ED8E24" d="M26.3983 11.5381L12.0088 19.8462V25.3844L21.6014 19.8462V25.3844L26.3983 22.6156V11.5381ZM40.7877 14.3075L35.9909 17.0769V22.6156L40.7877 19.8462V14.3075ZM31.1946 25.3844L26.3983 28.1538V33.6925L31.1946 30.9231V25.3844ZM26.3983 33.6925L21.6014 30.9231V42L26.3983 39.2306V33.6925Z"/><path id="Vector_3" fill="#F8BF3C" d="M26.3982 5.99994L7.2124 17.0768L12.0087 19.8462L26.3982 11.5381L35.9908 17.0768L40.7876 14.3075L26.3982 5.99994ZM26.3982 22.6155L21.6013 25.3843L26.3982 28.1537L31.1945 25.3843L26.3982 22.6155Z"/></g></g></svg>

<svg xmlns="http://www.w3.org/2000/svg" fill="none" aria-hidden="true" viewBox="0 0 48 48"><path fill="#E55B2D" d="M26.398 11.538v5.539l9.593 5.539v-5.54l-9.593-5.538ZM7.212 17.077v5.539l4.797 2.768v-5.538l-4.797-2.77Zm14.39 2.77-4.797 2.769V39.23L21.601 42V30.923l4.797 2.77v-5.54l-4.797-2.769v-5.538Z"/><path fill="#ED8E24" d="m26.398 11.538-14.39 8.308v5.538l9.593-5.538v5.538l4.797-2.768V11.538Zm14.39 2.77-4.797 2.769v5.539l4.797-2.77v-5.539Zm-9.593 11.076-4.797 2.77v5.539l4.797-2.77v-5.539Zm-4.797 8.309-4.797-2.77V42l4.797-2.77v-5.537Z"/><path fill="#F8BF3C" d="M26.398 6 7.212 17.077l4.797 2.77 14.39-8.309 9.592 5.539 4.797-2.77L26.398 6Zm0 16.616-4.797 2.768 4.797 2.77 4.797-2.77-4.797-2.768Z"/></svg>
